!!!!SEGMENT: pl-wtm--a-43-196-99--001-005_kazuro-stanislaw--25-piesni-dzieciecych-z-fortepianem-op-49-wedrowka-slonka.krn
!!!cenid: 19xx:201
!!!COM: Kazuro, Stanisław
!!!COM-rismID: pe50047136
!!!CDT: 1881/08/02-1961/11/30
!!!CNT: Polish
!!!GTL: 25 Pieśni dziecięcych z fortepianem, op. 49
!!!OTL: Wędrówka słonka
!!!OMV: 005
!!!PDT: 1950
!!!AGN:
!!!YEC: Copyright 2022 Narodowy Instytut Fryderyka Chopina (https://polishscores.org)
!!!YEM: License CC-BY-4.0 (https://creativecommons.org/licenses/by/4.0)
!!!SMS-siglum: PL-Wtm
!!!SMS-shelfmark: A-43.196/99
!!!SMS-variant:
!!!SMS-altvar:
!!!SMS-shelfwork: 001-005 G
!!!NIFC-rismSourceID: 1001164821
!!!NIFC-rismChildID: 1001164821
!!!NIFC-islandoraID: pl-wtm:43198
!!!URL-pdf-islandora: https://repozytorium.nifc.pl/islandora/object/pl-wtm:43198/datastream/PDF/view
!!!URL-scan: https://polish.musicsources.pl/pl/lokalizacje/galeria/druki-muzyczne/22428/7 @EN{Scan on Polish Music Sources Website} @PL{Skany w portalu Dziedzictwo Muzyki Polskiej w otwartym dostępie}
!!!IIIF:
!!!ONB-nifc:
!!!AIN: 1 piano 1 vox
!!!key: a
!!!OMD: Andantino tranquillo.
**kern	**kern	**dynam	**kern	**text	**dynam
*part2	*part2	*part2	*part1	*part1	*part1
*staff3	*staff2	*staff2/3	*staff1	*staff1	*staff1
*I"[Piano]	*I"[Piano]	*	*I"[Voice]	*	*
*I'[pf]	*I'[pf]	*	*I'[V]	*	*
*Ipiano	*Ipiano	*	*Ivox	*	*
*ICklav	*ICklav	*	*ICvox	*	*
*IGacmp	*IGacmp	*	*IGsolo	*	*
*clefF4	*clefG2	*	*clefG2	*	*
*k[]	*k[]	*	*k[]	*	*
*a:	*a:	*	*a:	*	*
*M4/4	*M4/4	*	*M4/4	*	*
*met(c)	*met(c)	*	*met(c)	*	*
!	!	!	!LO:TX:a:rj:t=Słowa M. A. Kasprzyckiej	!	!
4r	8a/L	mf	4r	.	.
.	8b/J	.	.	.	.
=1	=1	=1	=1	=1	=1
*	*^	*	*	*	*
4AA 4AAA/	8cc/L	2g 2e-X\	.	1r	.	.
.	8cc/J	.	.	.	.	.
4c\	8b/L	.	.	.	.	.
.	8b-X/J	.	.	.	.	.
8Bn\L	4a/	8fL 8d-X\	.	.	.	.
8A\J	.	8e-J 8c\	.	.	.	.
4E 4EE 4EEE/	8g#X/L	4dn 4B\	f	.	.	.
.	[8ee/J	.	.	.	.	.
=2	=2	=2	=2	=2	=2	=2
*^	*	*	*	*	*	*
4ryy	4ryy	8ee/L]	8aL 8f\	>	2r	.	.
.	.	8dd/J	8g#XJ 8e\	.	.	.	.
8d/L	8B-X\L	8cc/L	8a-X\L	.	.	.	.
8c/J	8A-X\J	8b-X/J	8gn\J	]	.	.	.
4Bn/	4E\	4g#X/	4e\	.	4r	.	.
4r	4ryy	8an/L	4r	mp	8a/	Po-	mp
.	.	8bn/J	.	.	8b\	-przez	.
*v	*v	*	*	*	*	*	*
!!LO:LB:g=original
=3	=3	=3	=3	=3	=3	=3
4A\	4cc/	[>2e [>2c\	.	8cc\	po-	.
.	.	.	.	8cc\	-la	.
4G\	4b/	.	.	8b\	o-	.
.	.	.	.	8b\	-śnie-	.
4F\	4a/	8e] 8c\]	.	8a/	-żo-	.
.	.	4d 4B\	.	8a,/	-ne	.
4E\	4g/	.	.	4g/	nad	.
.	.	[8c 8A\	.	.	.	.
=4	=4	=4	=4	=4	=4	=4
*^	*	*	*	*	*	*
2A/	4D\	(8f/L	8c\]	.	2a/	rze-	.
.	.	8cc/	8r	.	.	.	.
.	4C 4FF\	8dd/	4r	.	.	.	.
.	.	8a/J	.	.	.	.	.
!	!	!	!	!	!LO:TX:a:Bi:t=Fermuta	!	!
4G#X;:/	4BB: 4EE;:\	4b;:,/)	4e 4B;:\	.	4e;,/	-czką	.
4r	4ryy	8d/L	8d\L	.	8d/	wę-	.
.	.	8e/J	[8e\J	.	8e/	-dro-	.
=5	=5	=5	=5	=5	=5	=5	=5
8c/L	8A\L	8f/L	8e\L]	<	8f/	-wa-	<
8B/	8G\	8g/	8e-X\	.	8g/	-ło	.
8A/	8F\	8a/	8f\	.	8cc\	w ta-	.
8G/J	8En\J	8b/J	8g\J	.	8b\	-mtą	.
8A/L	8D\L	8cc/L	4f\	.	8a/	stro-	.
8B/J	8GG\J	8dd/J	.	.	8b,\	-nę	[
8c/L	8C\L	[4ee/	8en\L	[	4g/	sło-	[ mf
8d/J	8BB-X\J	.	8eeJ 8g\	.	.	.	.
!!LO:LB:g=original
=6	=6	=6	=6	=6	=6	=6	=6
4c#X/	4AA\	8ee/L]	4ee 4g\	.	2a/	-ne-	.
.	.	(16ff/L	.	.	.	.	.
.	.	16gg/JJ	.	.	.	.	.
4f/	4B 4G\	4aa/	8ee\	.	.	.	.
.	.	.	4dd#X/	.	.	.	.
4g;:/	4B: 4E;:\	4bb;,/)	.	.	4b;,\	-czko	.
.	.	.	8ee;\	.	.	.	.
4e:/	4G: 4C:\	4gg/	8cccL 8cc\	f	8cc\	I	f
.	.	.	8dddJ 8dd#\	.	8dd\	mru-	.
*	*	*v	*v	*	*	*	*
*clefG2	*	*	*	*	*	*
=7	=7	=7	=7	=7	=7	=7
8eeL 8cc\	2ryy	8eeeL 8gg\	.	8ee\	-ga-	.
8dd 8b-X\	.	8ccc 8aa-X\	.	8cc,\	-ło	.
8cc 8a-X\	.	8ddd 8bb-X\	.	8dd\	o-	.
8b-XJ 8g-X\	.	8eeeJ 8ccc\	.	8ee\	-kiem	.
8an/L	8f\L	8fffL 8ddd-X\	.	8ff\	zło-	.
8g-/J	8c\J	8eeeJ 8ccc\	.	8ee,\	-tem	.
4f#X/	4d\	8dddnL 8bb-X 8dd\	.	4dd\	ra-	.
.	.	8bb-J 8gg-X 8b-X\	.	.	.	.
!!LO:PB:g=original
=8	=8	=8	=8	=8	=8	=8
*	*	*^	*	*	*	*^
*clefF4	*	*	*	*	*	*	*	*
8fn/L	8d-X\L	8aaL 8ff/	2a\	>	2a/	-do-	>	.
8e-X/	8c-X\	8ggn 8ee-X/	.	.	.	.	.	.
8d-X/	8B--\	8ff 8dd-X/	.	.	.	.	.	.
8c#X/J	8A\J	8eenJ 8cc#X 8g/	.	]	.	.	.	.
4d-;/	4D;\	4dd- 4a 4f;,/	2ryy	.	4dd;,\	-śnie,	]	.
!	!	!	!	!	!	!	!	!LO:DY:b:rj
4r	4ryy	(>8ccn/L	.	mf	8cc\	i	mf	p
.	.	8bn/J	.	.	8b\	mó-	.	.
*	*	*	*	*	*	*	*v	*v
=9	=9	=9	=9	=9	=9	=9	=9
4r	4ryy	8a/L	8d#XL 8B\	.	8a/	-wi-	.
.	.	8g/	8c#XJ 8A\	.	8g/	-ło	.
8B/L	8G\L	8f/	4ryy	.	8f/	pta-	.
8A#X/J	8F#X\J	8e/J	.	.	8e/	-szkom	.
8An/L	8Fn\L	8an/L	8d#\L	.	8a/	sze-	.
8Gn/J	8E\J	8cc/J)	8e\J	.	8e,/	-ptem	.
8A/L	8D\L	4dd/	[4f\	f	4d/	o	f
8B-X/J	8BB-X\J	.	.	.	.	.	.
!!LO:LB:g=original
=10	=10	=10	=10	=10	=10	=10	=10
4A/	4FF\	2cc 2g^/	4f\]	.	2cc\	wio-	.
2E;/	4CC\	.	4c\	.	.	.	.
!	!	!	!LO:SIC:v:s=4g#: 4e: 4B;:\	!	!	!	!
.	4EE;\	4cc;,:/	4a#X: 4e: 4B;:\	.	4b;,\	-śnie,	.
4r	4ryy	8a#/L	4ryy	mp	8a/	I	mp
.	.	8b/J	.	.	8b\	w o-	.
*v	*v	*	*	*	*	*	*
=11	=11	=11	=11	=11	=11	=11
4A\	4cc/	[>2e [>2c\	.	8cc\	-kie-	.
.	.	.	.	8cc\	-nko	.
4G\	4b/	.	.	8b\	na-	.
.	.	.	.	8b\	-szej	.
4F\	4a/	8e] 8c\]	.	8a/	cha-	.
.	.	4d 4B\	.	8a,/	-ty	.
4E\	4g/	.	.	4g/	zaj-	.
.	.	(8c 8A\	.	.	.	.
=12	=12	=12	=12	=12	=12	=12
*^	*	*	*	*	*	*
2A/	4D\	(8f/L	8B\)	.	2a/	-rza-	.
.	.	8cc/	4.ryy	.	.	.	.
.	4C 4FF\	8dd/	.	.	.	.	.
.	.	8a/J	.	.	.	.	.
4G#X: 4BB;:/	4EE;:\	4b;/)	4e 4B;\	.	4e;,/	-ło,	.
4r	4ryy	8d/L	8d\L	<	8d/	i	<
.	.	8e/J	[8e\J	.	8e/	na	.
!!LO:LB:g=original
=13	=13	=13	=13	=13	=13	=13	=13
8c/L	8A\L	8f/L	8e\L]	.	8f/	bia-	.
8B/	8G\	8g/	8e-X\	.	8g/	-łe	.
8A/	8F\	8a/	8f\	.	8cc\	mro-	.
8G/J	8E\J	8b/J	8g\J	.	8b\	-zu	.
2A/	8D\L	8ee/L	4f\	[	8ee^\	kwia-	[
.	8BB,\J	8dd,/J	.	.	8dd,\	-ty	.
!	!	!LO:TX:a:t=rit	!	!	!	!	!
.	8C\L	4cc/	[4e-\	.	4cc'\	chu-	.
.	8D\J	.	.	>	.	.	.
=14	=14	=14	=14	=14	=14	=14	=14
!	!	!LO:TX:a:Bi:rj:t=rit	!	!	!	!	!
8G#X/L	2E\	2b/	8e-\L]	.	2b\	-cha-	>
8F#X/J	.	.	8e-X\	.	.	.	.
4G#/	.	.	8d\	.	.	.	.
.	.	.	8d-X\J	.	.	.	.
4A/	4AA\	4a/	4c\	]	4a/	-ło.	]
*v	*v	*	*	*	*	*	*
*	*v	*v	*	*	*	*
==	==	==	==	==	==
*-	*-	*-	*-	*-	*-
!!!system-decoration: s1{(s2,s3)}
!!!RDF**kern: > = above
!!!ENC: Andrzej Gręziak
!!!END: 2025-03-27
!!!EED: Marta Lawrence
!!!EEV: 2025-04-01
